src/objects/book-paper/1F4D6.svg

<svg id="emoji" viewBox="0 0 72 72" xmlns="http://www.w3.org/2000/svg">
  <g id="grid">
    <path fill="#b3b3b3" d="M68,4V68H4V4H68m4-4H0V72H72V0Z"/>
    <path fill="none" stroke="#00a5ff" stroke-miterlimit="10" stroke-width="0.1" d="M12.923,10.9583H59.0769A1.9231,1.9231,0,0,1,61,12.8814V59.0352a1.9231,1.9231,0,0,1-1.9231,1.9231H12.9231A1.9231,1.9231,0,0,1,11,59.0352V12.8813A1.923,1.923,0,0,1,12.923,10.9583Z"/>
    <rect x="16" y="4" rx="2.2537" width="40" height="64" fill="none" stroke="#00a5ff" stroke-miterlimit="10" stroke-width="0.1"/>
    <rect x="16" y="4" rx="2.2537" width="40" height="64" transform="translate(72) rotate(90)" fill="none" stroke="#00a5ff" stroke-miterlimit="10" stroke-width="0.1"/>
    <circle cx="36" cy="36" r="29" fill="none" stroke="#00a5ff" stroke-miterlimit="10" stroke-width="0.1"/>
  </g>
  <g id="color">
    <path fill="#9b9b9a" stroke="none" stroke-linecap="round" stroke-linejoin="round" stroke-miterlimit="10" stroke-width="2" d="M41,56c0,2.7614-2.2386,5-5,5s-5-2.2386-5-5"/>
    <path fill="#d0cfce" stroke="none" stroke-linecap="round" stroke-linejoin="round" stroke-miterlimit="10" stroke-width="2" d="M67.0015,56H4.9985C4.447,56,4,55.553,4,55.0015v-38.003C4,16.447,4.447,16,4.9985,16h62.003C67.553,16,68,16.447,68,16.9985 v38.003C68,55.553,67.553,56,67.0015,56z"/>
    <path fill="#FFFFFF" stroke="none" stroke-linecap="round" stroke-linejoin="round" stroke-miterlimit="10" stroke-width="2" d="M64.0015,51.625H7.9985C7.447,51.625,7,51.178,7,50.6265v-29.253c0-0.5514,0.447-0.9985,0.9985-0.9985h56.003 C64.553,20.375,65,20.822,65,21.3735v29.253C65,51.178,64.553,51.625,64.0015,51.625z"/>
  </g>
  <g id="hair"/>
  <g id="skin"/>
  <g id="skin-shadow"/>
  <g id="line">
    <path fill="none" stroke="#000000" stroke-linecap="round" stroke-linejoin="round" stroke-miterlimit="10" stroke-width="2" d="M41,56c0,2.7614-2.2386,5-5,5s-5-2.2386-5-5"/>
    <path fill="none" stroke="#000000" stroke-linecap="round" stroke-linejoin="round" stroke-miterlimit="10" stroke-width="2" d="M67.0015,56H4.9985C4.447,56,4,55.553,4,55.0015v-38.003C4,16.447,4.447,16,4.9985,16h62.003C67.553,16,68,16.447,68,16.9985 v38.003C68,55.553,67.553,56,67.0015,56z"/>
    <path fill="none" stroke="#000000" stroke-linecap="round" stroke-linejoin="round" stroke-miterlimit="10" stroke-width="2" d="M64.0015,51.625H7.9985C7.447,51.625,7,51.178,7,50.6265v-29.253c0-0.5514,0.447-0.9985,0.9985-0.9985h56.003 C64.553,20.375,65,20.822,65,21.3735v29.253C65,51.178,64.553,51.625,64.0015,51.625z"/>
    <line x1="36" x2="36" y1="17" y2="55" fill="none" stroke="#000000" stroke-linecap="round" stroke-linejoin="round" stroke-miterlimit="10" stroke-width="2"/>
    <line x1="11" x2="31" y1="27" y2="27" fill="none" stroke="#000000" stroke-linecap="round" stroke-linejoin="round" stroke-miterlimit="10" stroke-width="2"/>
    <line x1="11" x2="31" y1="33" y2="33" fill="none" stroke="#000000" stroke-linecap="round" stroke-linejoin="round" stroke-miterlimit="10" stroke-width="2"/>
    <line x1="11" x2="31" y1="39" y2="39" fill="none" stroke="#000000" stroke-linecap="round" stroke-linejoin="round" stroke-miterlimit="10" stroke-width="2"/>
    <line x1="11" x2="31" y1="45" y2="45" fill="none" stroke="#000000" stroke-linecap="round" stroke-linejoin="round" stroke-miterlimit="10" stroke-width="2"/>
    <line x1="41" x2="61" y1="27" y2="27" fill="none" stroke="#000000" stroke-linecap="round" stroke-linejoin="round" stroke-miterlimit="10" stroke-width="2"/>
    <line x1="41" x2="61" y1="33" y2="33" fill="none" stroke="#000000" stroke-linecap="round" stroke-linejoin="round" stroke-miterlimit="10" stroke-width="2"/>
    <line x1="41" x2="61" y1="39" y2="39" fill="none" stroke="#000000" stroke-linecap="round" stroke-linejoin="round" stroke-miterlimit="10" stroke-width="2"/>
    <line x1="41" x2="61" y1="45" y2="45" fill="none" stroke="#000000" stroke-linecap="round" stroke-linejoin="round" stroke-miterlimit="10" stroke-width="2"/>
  </g>
</svg>

<svg viewBox="0 0 72 72" xmlns="http://www.w3.org/2000/svg"><path fill="#b3b3b3" d="M68 4v64H4V4h64m4-4H0v72h72V0z"/><path fill="none" stroke="#00a5ff" stroke-miterlimit="10" stroke-width=".1" d="M12.923 10.958h46.154A1.923 1.923 0 0161 12.881v46.154a1.923 1.923 0 01-1.923 1.923H12.923A1.923 1.923 0 0111 59.035V12.881a1.923 1.923 0 011.923-1.923z"/><rect x="16" y="4" rx="2.254" width="40" height="64" fill="none" stroke="#00a5ff" stroke-miterlimit="10" stroke-width=".1"/><rect x="16" y="4" rx="2.254" width="40" height="64" transform="rotate(90 36 36)" fill="none" stroke="#00a5ff" stroke-miterlimit="10" stroke-width=".1"/><circle cx="36" cy="36" r="29" fill="none" stroke="#00a5ff" stroke-miterlimit="10" stroke-width=".1"/><g stroke-linecap="round" stroke-miterlimit="10" stroke-width="6" stroke="#fff" fill="none" stroke-linejoin="round"><path d="M41 56a5 5 0 01-10 0m36.001 0H4.998A.998.998 0 014 55.002V16.998c0-.551.447-.998.998-.998h62.004c.551 0 .998.447.998.998v38.004a.998.998 0 01-.999.998z"/><path d="M64.001 51.625H7.998A.998.998 0 017 50.627V21.372a1 1 0 01.999-.998H64c.552 0 .999.447.999.998v29.253a.998.998 0 01-.999.999zM36 17v38M11 27h20m-20 6h20m-20 6h20m-20 6h20m10-18h20m-20 6h20m-20 6h20m-20 6h20"/></g><path fill="#9b9b9a" d="M41 56a5 5 0 01-10 0"/><path fill="#d0cfce" d="M67.001 56H4.998A.998.998 0 014 55.002V16.998c0-.551.447-.998.998-.998h62.004c.551 0 .998.447.998.998v38.004a.998.998 0 01-.999.998z"/><path fill="#FFF" d="M64.001 51.625H7.998A.998.998 0 017 50.627V21.372a1 1 0 01.999-.998H64c.552 0 .999.447.999.998v29.253a.998.998 0 01-.999.999z"/><g fill="none" stroke="#000" stroke-linecap="round" stroke-linejoin="round" stroke-miterlimit="10" stroke-width="2"><path d="M41 56a5 5 0 01-10 0m36.001 0H4.998A.998.998 0 014 55.002V16.998c0-.551.447-.998.998-.998h62.004c.551 0 .998.447.998.998v38.004a.998.998 0 01-.999.998z"/><path d="M64.001 51.625H7.998A.998.998 0 017 50.627V21.372a1 1 0 01.999-.998H64c.552 0 .999.447.999.998v29.253a.998.998 0 01-.999.999zM36 17v38M11 27h20m-20 6h20m-20 6h20m-20 6h20m10-18h20m-20 6h20m-20 6h20m-20 6h20"/></g></svg>
